collateral/CBBTC.svg

<svg width="43" height="42" viewBox="0 0 43 42" fill="none" xmlns="http://www.w3.org/2000/svg">
<g clip-path="url(#clip0_9512_8166)">
<path d="M21.207 42.008C32.805 42.008 42.207 32.606 42.207 21.008C42.207 9.41002 32.805 0.00799561 21.207 0.00799561C9.60905 0.00799561 0.207031 9.41002 0.207031 21.008C0.207031 32.606 9.60905 42.008 21.207 42.008Z" fill="white"/>
<path fill-rule="evenodd" clip-rule="evenodd" d="M21.207 40.108C31.7557 40.108 40.307 31.5566 40.307 21.008C40.307 10.4594 31.7557 1.908 21.207 1.908C10.6584 1.908 2.10703 10.4594 2.10703 21.008C2.10703 31.5566 10.6584 40.108 21.207 40.108ZM42.207 21.008C42.207 32.606 32.805 42.008 21.207 42.008C9.60905 42.008 0.207031 32.606 0.207031 21.008C0.207031 9.41002 9.60905 0.00799561 21.207 0.00799561C32.805 0.00799561 42.207 9.41002 42.207 21.008Z" fill="#0052FF"/>
<path d="M30.6428 18.4092C31.055 15.6582 28.9589 14.1791 26.095 13.1921L27.0243 9.46456L24.7563 8.90018L23.8506 12.5292C23.2548 12.3796 22.6431 12.2405 22.0328 12.1014L22.945 8.44868L20.677 7.883L19.7478 11.6092C19.2543 11.4963 18.7686 11.3861 18.2988 11.2679L18.3014 11.2561L15.1724 10.4752L14.5686 12.8981C14.5686 12.8981 16.2526 13.2839 16.2171 13.3076C17.1359 13.5372 17.3013 14.1449 17.2737 14.6279L16.2158 18.8739C16.2788 18.8896 16.3602 18.9132 16.4521 18.9487L16.2119 18.8896L14.7288 24.8379C14.6159 25.1161 14.3311 25.5348 13.688 25.376C13.7116 25.4088 12.0395 24.9652 12.0395 24.9652L10.9133 27.5613L13.8665 28.2976C14.4151 28.4354 14.9532 28.5798 15.4821 28.715L14.5437 32.4845L16.8104 33.0489L17.7396 29.3214C18.3591 29.4881 18.9603 29.6429 19.5483 29.7899L18.6216 33.5017L20.8896 34.0661L21.8281 30.3044C25.6973 31.0368 28.6058 30.7415 29.8304 27.2424C30.8174 24.4257 29.7818 22.7996 27.7461 21.7404C29.2293 21.3991 30.3449 20.4239 30.6428 18.4092V18.4092ZM25.4585 25.6779C24.7589 28.4958 20.0142 26.972 18.476 26.5901L19.7228 21.596C21.2611 21.9806 26.1921 22.7405 25.4585 25.6779ZM26.1606 18.3686C25.5215 20.9319 21.5735 19.6286 20.2938 19.3096L21.4225 14.7815C22.7022 15.1004 26.8274 15.695 26.1606 18.3686Z" fill="#0052FF"/>
</g>
<defs>
<clipPath id="clip0_9512_8166">
<rect width="42" height="42" fill="white" transform="translate(0.207031 0.00799561)"/>
</clipPath>
</defs>
</svg>

<svg width="43" height="42" fill="none" viewBox="0 0 43 42" xmlns="http://www.w3.org/2000/svg">
  <g clip-path="url(#a)">
    <path fill="#fff" d="M21.207 42.008c11.598 0 21-9.402 21-21s-9.402-21-21-21-21 9.402-21 21 9.402 21 21 21"/>
    <path fill="#0052FF" fill-rule="evenodd" d="M21.207 40.108c10.549 0 19.1-8.551 19.1-19.1s-8.551-19.1-19.1-19.1-19.1 8.551-19.1 19.1 8.551 19.1 19.1 19.1m21-19.1c0 11.598-9.402 21-21 21s-21-9.402-21-21 9.402-21 21-21 21 9.402 21 21" clip-rule="evenodd"/>
    <path fill="#0052FF" d="M30.643 18.41c.412-2.752-1.684-4.23-4.548-5.218l.93-3.727-2.269-.565-.905 3.63c-.596-.15-1.208-.29-1.818-.429l.912-3.652-2.268-.566-.93 3.726c-.493-.113-.978-.223-1.448-.341l.002-.012-3.129-.78-.603 2.422s1.684.386 1.648.41c.919.23 1.084.837 1.057 1.32l-1.058 4.246q.096.023.236.075l-.24-.06-1.483 5.949c-.113.278-.398.697-1.041.538.024.033-1.649-.41-1.649-.41l-1.126 2.595 2.954.737c.548.137 1.086.282 1.615.417l-.938 3.77 2.266.564.93-3.728c.62.167 1.22.322 1.808.469l-.926 3.712 2.268.564.938-3.762c3.87.733 6.778.438 8.002-3.062.987-2.816-.048-4.442-2.084-5.502 1.483-.34 2.599-1.316 2.897-3.33m-5.184 7.268c-.7 2.818-5.445 1.294-6.983.912l1.247-4.994c1.538.385 6.47 1.145 5.736 4.082m.702-7.31c-.64 2.564-4.588 1.26-5.867.942l1.128-4.528c1.28.318 5.405.913 4.739 3.587"/>
  </g>
  <defs>
    <clipPath id="a">
      <path fill="#fff" d="M.207.008h42v42h-42z"/>
    </clipPath>
  </defs>
</svg>
